X:36
T:Christmas eve
T:Tommy Coen's reel
R:Reel
O:Ireland
C:Tommy Coen
B:Ceol Rince 2 n140
D:Show the ladies
S:My arrangement from various sources
Z:Transcription, arrangement, chords:Mike Long
M:C|
L:1/8
K:G
GE|\
"G"D3E ~G2GA|"G"B2dB "(C)"ABGA|"G"BAGE D2DE|"G"~G2GB "D"ABGE|\
"G"D2DE ~G2GA|"G"B2dB "(C)"ABGA|
"G"BA~A2 "C"GEBG|"D"ABGE "G"G2:|\
|:GA|\
"Em"BA (3(B^cd) edeg|"Am"(3(aba) ge ~g2eg|"C"~a2ae gage|"D"dedB ABGA|
"G"BA (3(B^cd) edeg|"Am"(3(aba) ge ~g2eg|"C"~a2ge "G"dBGB|"D"ABGE "G"G2:|\
|:dc|\
"G"BG~G2 dG (3(B^cd)|"C"eg~g2 egdc|
"G"BG~G2 DGBG|"D"FA~A2 FA~A2|\
"G"BG~G2 dG (3(B^cd)|"C"eg~g2 egdg|"G"(3(bag) af gedB|"D"ABGE "G"G2:|
